src/pug/_include/primerka.svg

<svg width="16" height="14" viewBox="0 0 16 14">
<path d="M14.9366 9.47323L10.61 6.87033C10.0022 6.50473 9.32617 6.27267 8.62671 6.18539V5.53341C8.62671 5.1661 8.83704 4.82418 9.17554 4.64096C10.0166 4.18576 10.5118 3.30905 10.4678 2.35287C10.4095 1.08639 9.38562 0.0608799 8.11755 0.00265233C6.69604 -0.062167 5.53296 1.06955 5.53296 2.46872C5.53296 2.81393 5.81287 3.09372 6.15796 3.09372C6.50317 3.09372 6.78296 2.81393 6.78296 2.46872C6.78296 1.77682 7.35803 1.21896 8.06006 1.25131C8.6814 1.27987 9.19055 1.78903 9.21912 2.41037C9.24097 2.88327 8.99622 3.31674 8.58044 3.54171C7.83801 3.94357 7.37671 4.70675 7.37671 5.53341V6.18502C6.68018 6.27145 6.00659 6.50155 5.40051 6.86422L1.06775 9.45712H1.06763C0.410036 9.85067 0.000855871 10.5713 1.37775e-06 11.3377C-0.0013414 12.5506 0.979005 13.5334 2.19202 13.5349L13.8027 13.5484H13.8054C15.0143 13.5484 15.9985 12.5655 16 11.3563C16.0009 10.5899 15.5934 9.86825 14.9366 9.47323ZM13.8054 12.2984C13.8051 12.2984 13.8046 12.2984 13.8043 12.2984L2.1936 12.2849C1.67261 12.2843 1.24939 11.8601 1.25 11.3392C1.25037 11.0092 1.42651 10.6991 1.7096 10.5296H1.70947L6.04236 7.93685C7.24988 7.2142 8.75842 7.2153 9.96558 7.94137L14.2924 10.5443C14.575 10.7143 14.7504 11.025 14.75 11.3548C14.7494 11.8753 14.3258 12.2984 13.8054 12.2984Z" fill="#4E5B67"/>
</svg>

<svg xmlns="http://www.w3.org/2000/svg" width="16" height="14"><path d="M14.937 9.473L10.6 6.87c-.608-.366-1.284-.598-1.983-.685v-.652c0-.367.2-.71.55-.892.84-.455 1.336-1.332 1.292-2.288C10.4 1.086 9.386.06 8.118.003a2.47 2.47 0 0 0-2.585 2.466c0 .345.28.625.625.625s.625-.28.625-.625A1.22 1.22 0 0 1 8.06 1.251c.62.03 1.13.538 1.16 1.16.022.473-.223.906-.64 1.13-.742.402-1.204 1.165-1.204 1.992v.652c-.697.086-1.37.317-1.976.68L1.068 9.457C.4 9.85.001 10.57 0 11.338c-.001 1.213.98 2.196 2.192 2.197l11.613.014A2.2 2.2 0 0 0 16 11.356c.001-.766-.407-1.488-1.063-1.883zm-1.13 2.825l-11.612-.014c-.52-.001-.944-.425-.944-.946a.95.95 0 0 1 .46-.81h0l4.333-2.593c1.208-.723 2.716-.722 3.923.005l4.327 2.603a.95.95 0 0 1 .458.81c-.001.52-.424.944-.945.944z" fill="#4e5b67"/></svg>
